X:13
T:Tattoo
M:2/4
L:1/8
B:Thompson's Compleat Collection of 200 Favourite Country Dances, vol. 2 (London, 1765)
Z:Transcribed and edited by Flynn Titford-Mock, 2007
Z:abc's:AK/Fiddler's Companion
K:D
(A/B/c/) | ddd(c/B/) AF dF | AF fd | AFGF | ddd(c/B/) | AF de | fdec | d2 D :|
|: (f/g/) | aaa(g/f/) | gefd | afge | fdec | aaa(g/f/) | gefd | edec | d2 D :|

